X:1548
T:Corney is Coming
R:reel
N:"collected from J. O'Neill"
B:"O'Neill's Dance Music of Ireland, 1548"
T: ta cro.tuir ag tea.cd.
Z:transcribed by John B. Walsh, walsh@math.ubc.ca 8/23/96
M:C|
L:1/8
K:D
Addc dfed|ABcA EFGE|Dddc defg|afge fdec|
Addc dfed|ABcA EFGE|Dddc defg|afge (fd) d2||
defg adfd|cdef gedc|defg adfd|gece (fd) d2|
defg adfd|cdef gedc|defga2 (gf)|gbag (fd) d2||


